X: 34504
T: Rights Of Man, The
R: hornpipe
M: 4/4
K: Eminor
|:G>A|B2 (3ABA G2 (3FGF|E>FG>A B2 e>f|g>fe>d e>d (3Bcd|c>BA<G A2 (3FGA|
(3BcB A2 (3GAG F>G|E>FG<A B2 e>f|g2 (3fed B2 (3fgf|e>E E>^D E2:|
|:g>a|b2- b>g e2 (3fga|b>^ab>g e2 (3gfe|d3 e f3 g|a>f (3def a2 (3agf|
e^def g>fg>a|b2 (3agf g>fe>f|g>fe<d B2 (3gfg|e2 E2 E2:|

